icons/evolvere-blue-folders-flat-vivid-dark-fallback/apps/64/cmake.svg

<?xml version="1.0" encoding="UTF-8" standalone="no"?>
<!-- Created with Inkscape (http://www.inkscape.org/) -->

<svg
   xmlns:dc="http://purl.org/dc/elements/1.1/"
   xmlns:cc="http://creativecommons.org/ns#"
   xmlns:rdf="http://www.w3.org/1999/02/22-rdf-syntax-ns#"
   xmlns:svg="http://www.w3.org/2000/svg"
   xmlns="http://www.w3.org/2000/svg"
   xmlns:sodipodi="http://sodipodi.sourceforge.net/DTD/sodipodi-0.dtd"
   xmlns:inkscape="http://www.inkscape.org/namespaces/inkscape"
   width="64"
   height="64"
   id="svg13094"
   version="1.1"
   inkscape:version="0.91+devel r"
   sodipodi:docname="cmake.svg">
  <sodipodi:namedview
     id="base"
     pagecolor="#ffffff"
     bordercolor="#666666"
     borderopacity="1.0"
     inkscape:pageopacity="0"
     inkscape:pageshadow="2"
     inkscape:zoom="11.313709"
     inkscape:cx="18.553258"
     inkscape:cy="31.463348"
     inkscape:document-units="px"
     inkscape:current-layer="svg13094"
     showgrid="false"
     inkscape:snap-bbox="true"
     inkscape:bbox-paths="true"
     inkscape:bbox-nodes="true"
     inkscape:snap-bbox-edge-midpoints="true"
     inkscape:snap-bbox-midpoints="true"
     inkscape:object-paths="true"
     inkscape:snap-intersection-paths="true"
     inkscape:object-nodes="true"
     inkscape:snap-smooth-nodes="true"
     inkscape:snap-midpoints="true"
     inkscape:snap-object-midpoints="true"
     inkscape:snap-center="true"
     showguides="true"
     inkscape:guide-bbox="true"
     inkscape:window-width="1920"
     inkscape:window-height="1023"
     inkscape:window-x="-10"
     inkscape:window-y="35"
     inkscape:window-maximized="1"
     inkscape:snap-global="false"
     fit-margin-top="0"
     fit-margin-left="0"
     fit-margin-right="0"
     fit-margin-bottom="0"
     showborder="true"
     inkscape:showpageshadow="false"
     inkscape:snap-page="true">
    <inkscape:grid
       type="xygrid"
       id="grid3075"
       empspacing="5"
       visible="true"
       enabled="true"
       snapvisiblegridlinesonly="true"
       originx="1.6362304e-08px"
       originy="18px" />
  </sodipodi:namedview>
  <defs
     id="defs13096" />
  <metadata
     id="metadata13099">
    <rdf:RDF>
      <cc:Work
         rdf:about="">
        <dc:format>image/svg+xml</dc:format>
        <dc:type
           rdf:resource="http://purl.org/dc/dcmitype/StillImage" />
        <dc:title></dc:title>
      </cc:Work>
    </rdf:RDF>
  </metadata>
  <path
     inkscape:connector-curvature="0"
     style="color:#000000;fill:#2f5d74;fill-opacity:1;fill-rule:nonzero;stroke:none;stroke-width:2.28571415;marker:none;visibility:visible;display:inline;overflow:visible;enable-background:accumulate"
     d="m 0,4 0,30 0,28 2,2 30,0 30,0 2,-2 L 64,34 64,4 32,4 0,4 z"
     id="path6383" />
  <path
     style="color:#000000;fill:#70a0af;fill-opacity:1;fill-rule:nonzero;stroke:none;marker:none;visibility:visible;display:inline;overflow:visible;enable-background:accumulate;stroke-width:2.28571415"
     d="M 2 0 L 0 1 L 0 4 L 32 4 L 64 4 L 64 1 L 62 0 L 32 0 L 2 0 z "
     id="path6502" />
  <path
     style="fill:#84b8c8;fill-opacity:1;fill-rule:nonzero"
     d="M 0,3 0,6 2,4 Z"
     id="path4298"
     inkscape:connector-curvature="0"
     sodipodi:nodetypes="cccc" />
  <path
     d="M 64,6 62,4 64,3 z"
     id="path3028"
     style="fill:#4f7e91;fill-opacity:1"
     inkscape:connector-curvature="0" />
  <g
     id="g3043"
     inkscape:export-filename="folder.png"
     inkscape:export-xdpi="90"
     inkscape:export-ydpi="90"
     transform="translate(-0.62500009,0.082283)" />
  <g
     id="scalable"
     transform="matrix(1.0385892,0,0,1.0385892,1214.7222,1878.8121)"
     inkscape:label="#g3701"
     style="fill:#ffffff" />
  <g
     id="g3907"
     transform="translate(-0.70369,-1.8925041)">
    <path
       style="fill:#496ae8;fill-opacity:1;fill-rule:nonzero;stroke:none"
       d="M 34.756254,33.848376 9.96583,55.040257 32.671599,9.6736236 34.756254,33.848376 z"
       id="path2828"
       sodipodi:nodetypes="cccc"
       inkscape:connector-curvature="0" />
    <path
       style="fill:#c94b51;fill-opacity:1;fill-rule:nonzero;stroke:none"
       d="M 35.905061,47.082845 32.683384,9.6695468 55.418223,55.044394 35.905061,47.082845 z"
       id="path2828-4"
       sodipodi:nodetypes="cccc"
       inkscape:connector-curvature="0" />
    <path
       style="fill:#32b552;fill-opacity:1;fill-rule:nonzero;stroke:none"
       d="M 24.687705,42.396055 55.44155,55.038915 9.971792,55.033918 24.687705,42.396055 z"
       id="path2828-1"
       sodipodi:nodetypes="cccc"
       inkscape:connector-curvature="0" />
    <path
       style="fill:#e2e2e2;fill-opacity:1;fill-rule:nonzero;stroke:none"
       d="M 24.734455,42.426583 34.740659,33.890866 36.133738,47.07245 24.734455,42.426583 z"
       id="path2828-4-7"
       sodipodi:nodetypes="cccc"
       inkscape:connector-curvature="0" />
  </g>
</svg>

<svg xmlns="http://www.w3.org/2000/svg" viewBox="0 0 64 64"><g color="#000"><path d="m0 4v30 28l2 2h30 30l2-2v-28-30h-32-32" fill="#2f5d74"/><path d="m2 0l-2 1v3h32 32v-3l-2-1h-30-30" fill="#70a0af"/></g><path d="m0 3v3l2-2" fill="#84b8c8"/><path d="m64 6l-2-2 2-1z" fill="#4f7e91"/><g transform="translate(-.704-1.893)"><path d="m34.756 33.848l-24.79 21.19 22.706-45.37 2.085 24.17" fill="#496ae8"/><path d="m35.905 47.08l-3.222-37.413 22.735 45.37-19.513-7.962" fill="#c94b51"/><path d="m24.688 42.4l30.754 12.643-45.47-.005 14.716-12.638" fill="#32b552"/><path d="m24.734 42.43l10.01-8.536 1.393 13.182-11.399-4.646" fill="#e2e2e2"/></g></svg>
